X:1
T:Title
%%score { ( 1 3 ) | ( 2 4 ) }
L:1/8
M:6/8
K:A
V:1 treble nm="Grand Piano"
V:3 treble 
V:2 bass 
V:4 bass 
V:1
 z3 z2[Q:1/4=90] D | F>^EF [FA]>[EG][FA] | [Fd][Ac][=GB] [FA]2 [DF] | [E=G]>[EG][EG] [CE][FA][EG] | %4
 F3- F2 D | F>^EF [FA]>[EG][FA] | [Fd][Ac][=GB] [FA]2 [FA] | B>BB ABc | [Fd]6 | .[DF]6 | %10
 [FA]-[DF-A-][DF-A-] [DFA]GA | [=GB]-[DG-B-][DG-B-] [GB]c[DGd] | [FA]2- [DF-A-] [DFA]3 | .[Fd]6 | %14
 .[FA]6 | .[=Gc]6 |[M:5/8] d-d- d3 |] %17
V:2
 z3 z2 [D,F,] | [D,A,D]>[D,G,D][D,A,D] [D,D]>[D,D][D,D] | [D,A,]2 [D,D] [D,D]2 [D,A,] | %3
 [A,,A,]>[A,,A,][A,,A,] [A,,A,]2 [A,,A,] | [D,A,D]3- [D,A,D]2 [D,F,] | %5
 [D,A,D]>[D,G,D][D,A,D] [D,D]>[D,D][D,D] | [D,A,]2 [D,D] [D,D]2 [D,D] | %7
 [=G,D=G]>[G,DG][G,DG] [A,G]2 [A,G] | [D,A,]6 | [D,A,]D,D, D,CD | D,D,D, D,[K:treble]^EF | %11
 =G,G,G,[K:bass] z AB,, | D,2 D, D,3 | [D,A,]D,D, D,[K:treble]A=G | D,D,D, D,[K:treble]FF | %15
 A,A,A,[K:bass] A,,[A,,A,][A,,A,] |[M:5/8] A,B,B, A,2 |] %17
V:3
 x6 | x6 | x6 | x6 | x6 | x6 | x6 | x6 | x6 | z A,A, A,^EF | .D3 z3 | .D3 .D3 | .D3 z3 | %13
 z A,A, A,cB | DDD Ddd | z3 A,[=GB][Gc] |[M:5/8] F=GG F2 |] %17
V:4
 x6 | x6 | x6 | x6 | x6 | x6 | x6 | x6 | x6 | x6 | x4[K:treble] x2 | z3[K:bass] .=G,,3 | x6 | %13
 x4[K:treble] x2 | x4[K:treble] x2 | x3[K:bass] x3 |[M:5/8] D,-D,- D,3 |] %17

